icon/lg/rethinkdb.svg

<?xml version="1.0" encoding="UTF-8" standalone="no"?>
<svg viewBox="0 0 512 82" version="1.1" xmlns="http://www.w3.org/2000/svg" xmlns:xlink="http://www.w3.org/1999/xlink" preserveAspectRatio="xMidYMid" height="1em" width="1em">
  <g>
    <path d="M0,78.9936682 L0,73.698607 C0,72.6179769 0.540306965,72.0776699 1.6209371,72.0776699 L7.24018573,72.0776699 L7.24018573,15.8851836 L1.6209371,15.8851836 C0.540306965,15.8851836 0,15.3448767 0,14.2642465 L0,8.86112284 C0,7.7804927 0.540306965,7.24018573 1.6209371,7.24018573 C10.8423143,6.80793368 18.5146732,6.59181089 24.638244,6.59181089 C43.3691664,6.59181089 52.7344871,13.2916173 52.7344871,26.691431 C52.7344871,31.3741616 51.5458118,35.4985048 49.1684255,39.0645842 C46.7910392,42.6306637 43.6212383,45.3502087 39.6589278,47.223301 L52.3022372,72.0776699 L59.0021106,72.0776699 C60.0827407,72.0776699 60.6230477,72.6179769 60.6230477,73.698607 L60.6230477,78.9936682 C60.6230477,80.0742984 60.0827407,80.6146053 59.0021106,80.6146053 L44.7378641,80.6146053 C43.6572339,80.6146053 42.8647837,80.1463393 42.3604897,79.2097932 L27.6639932,50.1409878 L25.5027438,50.1409878 C23.1973995,50.1409878 21.144233,50.0329264 19.3431828,49.8168003 L19.3431828,72.0776699 L26.1511186,72.0776699 C27.2317488,72.0776699 27.7720557,72.6179769 27.7720557,73.698607 L27.7720557,78.9936682 C27.7720557,80.0742984 27.2317488,80.6146053 26.1511186,80.6146053 L1.6209371,80.6146053 C0.540306965,80.6146053 0,80.0742984 0,78.9936682 L0,78.9936682 Z M19.3431828,15.5609962 L19.3431828,41.6040523 C19.9195189,41.6760944 20.7479895,41.7121148 21.8286197,41.7121148 C27.6640224,41.7121148 32.2026009,40.55946 35.4444913,38.2541157 C38.6863818,35.9487714 40.3073027,32.4908068 40.3073027,27.8801182 C40.3073027,19.6673291 34.6160693,15.5609962 23.2334318,15.5609962 L19.3431828,15.5609962 Z M90.8805403,81.911355 C82.3075412,81.911355 76.0219702,79.4079327 72.0236387,74.4010131 C68.0253072,69.3940934 66.0261714,62.766328 66.0261714,54.5175179 C66.0261714,46.2687079 68.1513788,39.4428299 72.4018573,34.0396792 C76.6523359,28.6365285 82.7758148,25.9349937 90.7724778,25.9349937 C94.7347883,25.9349937 98.1387222,26.6734132 100.984382,28.1502744 C103.830041,29.6271356 106.009279,31.6262713 107.522161,34.1477417 C110.403842,39.0465983 111.84466,44.7018112 111.84466,51.11355 C111.84466,54.1393144 111.700578,55.7962558 111.41241,56.0844238 C111.124242,56.3725918 110.583935,56.5166737 109.791473,56.5166737 L78.021106,56.5166737 C78.381316,61.7036984 79.6600425,65.7199801 81.8573238,68.5656395 C84.054605,71.4112989 87.854764,72.8341072 93.2579147,72.8341072 C97.2202252,72.8341072 101.290538,71.8975751 105.468974,70.0244829 C106.477562,69.5201888 107.197972,69.8083526 107.630224,70.8889827 L109.683411,75.8598565 C110.043621,76.7243606 109.719437,77.4447699 108.710848,78.021106 C103.956076,80.6146183 98.0126992,81.911355 90.8805403,81.911355 L90.8805403,81.911355 Z M78.021106,48.5200507 L100.4981,48.5200507 C100.642184,39.5147995 97.112179,35.0122415 89.907978,35.0122415 C85.6574995,35.0122415 82.6497907,36.3630089 80.8847615,39.0645842 C79.1197323,41.7661596 78.16519,44.9179502 78.021106,48.5200507 L78.021106,48.5200507 Z M136.590967,35.9848037 L136.590967,63.2165471 C136.590967,66.6025215 137.023212,69.0519131 137.887716,70.5647953 C138.75222,72.0776775 140.373141,72.8341072 142.750528,72.8341072 C145.127914,72.8341072 147.433224,72.3298207 149.666526,71.3212326 C150.458988,71.0330646 151.035315,71.3212283 151.395526,72.1857324 L153.34065,77.1566062 C153.412692,77.3727322 153.448713,77.6789061 153.448713,78.0751372 C153.448713,78.4713682 153.088508,78.8856036 152.368088,79.3178556 C148.910071,81.0468639 144.803738,81.911355 140.048966,81.911355 C133.637227,81.911355 129.422833,80.2544136 127.405656,76.9404812 C125.964816,74.7792209 125.136346,72.690034 124.92022,70.6728577 C124.632051,67.9352614 124.48797,65.0536242 124.48797,62.0278599 L124.48797,35.9848037 L118.328409,35.9848037 C117.247778,35.9848037 116.707472,35.4444967 116.707472,34.3638666 L116.707472,28.744618 C116.707472,27.6639878 117.247778,27.1236809 118.328409,27.1236809 L124.48797,27.1236809 L124.48797,12.5352469 C124.48797,11.4546168 125.028277,10.9143098 126.108907,10.9143098 L134.97003,10.9143098 C136.05066,10.9143098 136.590967,11.4546168 136.590967,12.5352469 L136.590967,27.1236809 L147.505276,27.1236809 C148.585907,27.1236809 149.126214,27.6639878 149.126214,28.744618 L149.126214,34.3638666 C149.126214,35.4444967 148.585907,35.9848037 147.505276,35.9848037 L136.590967,35.9848037 Z M157.122837,7.24018573 L157.122837,1.6209371 C157.122837,0.540306965 157.663144,0 158.743774,0 L175.061207,0 C176.141837,0 176.682144,0.540306965 176.682144,1.6209371 L176.682144,34.904179 C180.716497,28.9246922 186.299669,25.9349937 193.431828,25.9349937 C204.598339,25.9349937 210.181511,32.0584726 210.181511,44.3056142 L210.181511,72.0776699 L216.557197,72.0776699 C217.637827,72.0776699 218.178134,72.6179769 218.178134,73.698607 L218.178134,78.9936682 C218.178134,80.0742984 217.637827,80.6146053 216.557197,80.6146053 L192.891515,80.6146053 C191.810885,80.6146053 191.270578,80.0742984 191.270578,78.9936682 L191.270578,73.698607 C191.270578,72.6179769 191.810885,72.0776699 192.891515,72.0776699 L198.078514,72.0776699 L198.078514,49.7087379 C198.078514,45.1700913 197.502187,41.8562086 196.349515,39.7669903 C195.196842,37.677772 192.819492,36.6331786 189.217391,36.6331786 C185.615291,36.6331786 182.625592,37.7137925 180.248206,39.8750528 C177.87082,42.036313 176.682144,44.4857046 176.682144,47.223301 L176.682144,72.0776699 L183.273955,72.0776699 C184.354585,72.0776699 184.894892,72.6179769 184.894892,73.698607 L184.894892,78.9936682 C184.894892,80.0742984 184.354585,80.6146053 183.273955,80.6146053 L158.743774,80.6146053 C157.663144,80.6146053 157.122837,80.0742984 157.122837,78.9936682 L157.122837,73.698607 C157.122837,72.6179769 157.663144,72.0776699 158.743774,72.0776699 L164.579147,72.0776699 L164.579147,8.86112284 L158.743774,8.86112284 C157.663144,8.86112284 157.122837,8.32081587 157.122837,7.24018573 L157.122837,7.24018573 Z M241.951878,72.0776699 L248.759814,72.0776699 C249.840444,72.0776699 250.380751,72.6179769 250.380751,73.698607 L250.380751,78.9936682 C250.380751,80.0742984 249.840444,80.6146053 248.759814,80.6146053 L223.040946,80.6146053 C221.960315,80.6146053 221.420008,80.0742984 221.420008,78.9936682 L221.420008,73.698607 C221.420008,72.6179769 221.960315,72.0776699 223.040946,72.0776699 L229.848881,72.0776699 L229.848881,35.9848037 L224.013508,35.9848037 C222.932878,35.9848037 222.392571,35.4444967 222.392571,34.3638666 L222.392571,28.744618 C222.392571,27.6639878 222.932878,27.1236809 224.013508,27.1236809 L240.330941,27.1236809 C241.411571,27.1236809 241.951878,27.6639878 241.951878,28.744618 L241.951878,72.0776699 Z M226.823132,11.9949346 C226.823132,9.76163228 227.525531,7.90657837 228.93035,6.42971718 C230.33517,4.95285599 232.208234,4.21443647 234.549599,4.21443647 C236.890964,4.21443647 238.764028,4.95285599 240.168848,6.42971718 C241.573667,7.90657837 242.276066,9.76163228 242.276066,11.9949346 C242.276066,14.2282369 241.555657,16.0652805 240.114816,17.5061207 C238.673976,18.9469609 236.782902,19.6673702 234.441537,19.6673702 C232.100171,19.6673702 230.245117,18.9469609 228.876319,17.5061207 C227.507521,16.0652805 226.823132,14.2282369 226.823132,11.9949346 L226.823132,11.9949346 Z M254.162938,34.4719291 L254.162938,28.744618 C254.162938,27.6639878 254.703245,27.1236809 255.783875,27.1236809 L270.480371,27.1236809 C271.416918,27.1236809 271.993245,27.6639878 272.209371,28.744618 L273.181933,35.0122415 C277.216286,28.9607127 282.97956,25.9349937 290.471929,25.9349937 C301.638441,25.9349937 307.221612,32.0584726 307.221612,44.3056142 L307.221612,72.0776699 L313.489236,72.0776699 C314.569866,72.0776699 315.110173,72.6179769 315.110173,73.698607 L315.110173,78.9936682 C315.110173,80.0742984 314.569866,80.6146053 313.489236,80.6146053 L289.931617,80.6146053 C288.850987,80.6146053 288.31068,80.0742984 288.31068,78.9936682 L288.31068,73.698607 C288.31068,72.6179769 288.850987,72.0776699 289.931617,72.0776699 L295.118615,72.0776699 L295.118615,49.7087379 C295.118615,45.1700913 294.542288,41.8562086 293.389616,39.7669903 C292.236944,37.677772 289.859593,36.6331786 286.257493,36.6331786 C282.655392,36.6331786 279.665694,37.7137925 277.288307,39.8750528 C274.910921,42.036313 273.722246,44.4857046 273.722246,47.223301 L273.722246,72.0776699 L280.422119,72.0776699 C281.502749,72.0776699 282.043056,72.6179769 282.043056,73.698607 L282.043056,78.9936682 C282.043056,80.0742984 281.502749,80.6146053 280.422119,80.6146053 L255.891938,80.6146053 C254.811307,80.6146053 254.271,80.0742984 254.271,78.9936682 L254.271,73.698607 C254.271,72.6179769 254.811307,72.0776699 255.891938,72.0776699 L261.619249,72.0776699 L261.619249,35.9848037 L255.783875,35.9848037 C254.703245,35.9848037 254.162938,35.4805172 254.162938,34.4719291 L254.162938,34.4719291 Z M338.99198,1.6209371 L338.99198,44.7378641 L344.503166,44.7378641 L361.252849,28.3123681 C362.045311,27.519906 362.981843,27.1236809 364.062474,27.1236809 L372.491347,27.1236809 C373.571977,27.1236809 374.112284,27.6639878 374.112284,28.744618 L374.112284,34.3638666 C374.112284,35.4444967 373.571977,35.9848037 372.491347,35.9848037 L365.899536,35.9848037 L354.012664,47.5474884 L368.817222,72.0776699 L375.192908,72.0776699 C376.273539,72.0776699 376.813846,72.6179769 376.813846,73.698607 L376.813846,78.9936682 C376.813846,80.0742984 376.273539,80.6146053 375.192908,80.6146053 L361.252849,80.6146053 C360.244261,80.6146053 359.41579,80.1463393 358.767412,79.2097932 L342.558041,53.0586745 L338.99198,53.0586745 L338.99198,72.0776699 L344.719291,72.0776699 C345.799921,72.0776699 346.340228,72.6179769 346.340228,73.698607 L346.340228,78.9936682 C346.340228,80.0742984 345.799921,80.6146053 344.719291,80.6146053 L321.161672,80.6146053 C320.081041,80.6146053 319.540734,80.0742984 319.540734,78.9936682 L319.540734,73.698607 C319.540734,72.6179769 320.081041,72.0776699 321.161672,72.0776699 L326.888983,72.0776699 L326.888983,8.75306036 L321.053609,8.75306036 C319.972979,8.75306036 319.432672,8.2127534 319.432672,7.13212326 L319.432672,1.6209371 C319.432672,0.540306965 319.972979,0 321.053609,0 L337.371043,0 C338.451673,0 338.99198,0.540306965 338.99198,1.6209371 L338.99198,1.6209371 Z M383.837906,7.24018573 C393.059283,6.80793368 399.903172,6.59181089 404.369776,6.59181089 C408.836381,6.59181089 412.168274,6.68186205 414.365555,6.86196707 C416.562836,7.0420721 419.066259,7.42028697 421.875897,7.99662305 C424.685535,8.57295912 427.188958,9.34739911 429.386239,10.3199662 C431.58352,11.2925334 433.798779,12.6793212 436.032081,14.4803715 C438.265383,16.2814217 440.138447,18.3706086 441.65133,20.7479949 C444.965262,26.2231876 446.622203,33.2831986 446.622203,41.9282398 C446.622203,54.9678434 443.020157,64.6753586 435.815956,71.0510764 C428.611755,77.4267942 418.778168,80.6146053 406.314901,80.6146053 L383.837906,80.6146053 C382.757276,80.6146053 382.216969,80.0742984 382.216969,78.9936682 L382.216969,73.698607 C382.216969,72.6179769 382.757276,72.0776699 383.837906,72.0776699 L389.457155,72.0776699 L389.457155,15.9932461 L383.837906,15.9932461 C382.757276,15.9932461 382.216969,15.4529391 382.216969,14.372309 L382.216969,8.86112284 C382.216969,7.7804927 382.757276,7.24018573 383.837906,7.24018573 L383.837906,7.24018573 Z M427.116927,64.4052343 C431.475469,59.2182096 433.654707,52.1221781 433.654707,43.116927 C433.654707,34.1116758 431.61955,27.2677876 427.549177,22.585057 C423.478803,17.9023264 417.121191,15.5609962 408.47615,15.5609962 L401.560152,15.5609962 L401.560152,72.1857324 L408.692275,72.1857324 C416.616896,72.1857324 422.758385,69.5922589 427.116927,64.4052343 L427.116927,64.4052343 Z M455.483326,78.9936682 L455.483326,73.698607 C455.483326,72.6179769 456.023633,72.0776699 457.104263,72.0776699 L462.831575,72.0776699 L462.831575,15.9932461 L457.212326,15.9932461 C456.131696,15.9932461 455.591389,15.4529391 455.591389,14.372309 L455.591389,8.86112284 C455.591389,7.70845069 456.131696,7.13212326 457.212326,7.13212326 C465.857367,6.77191321 474.070033,6.59181089 481.85057,6.59181089 C489.631107,6.59181089 495.844637,8.08666016 500.491347,11.0764035 C505.138056,14.0661469 507.461376,18.334572 507.461376,23.8818067 C507.461376,27.9161592 506.21867,31.4281545 503.733221,34.4178978 C501.247771,37.4076412 498.312104,39.5868793 494.926129,40.9556775 C500.473364,41.8201816 504.705768,43.8733481 507.62347,47.1152385 C510.541171,50.3571289 512,54.31938 512,59.0021106 C512,65.1256814 509.730711,70.0784952 505.192064,73.8607007 C500.653418,77.6429062 494.638,79.7861238 487.145631,80.2904179 C484.047825,80.5065439 479.077001,80.6146053 472.23301,80.6146053 L457.104263,80.6146053 C456.023633,80.6146053 455.483326,80.0742984 455.483326,78.9936682 L455.483326,78.9936682 Z M474.934572,46.5749261 L474.934572,72.2937949 L479.797383,72.2937949 C486.13708,72.2937949 491.053873,71.2852218 494.547911,69.2680456 C498.041948,67.2508693 499.78894,63.7568843 499.78894,58.7859856 C499.78894,50.6452386 494.097707,46.5749261 482.71507,46.5749261 L474.934572,46.5749261 Z M474.934572,15.3448713 L474.934572,37.6057408 L479.040946,37.6057408 C489.703163,37.6057408 495.034192,33.895633 495.034192,26.475306 C495.034192,22.2968695 493.737455,19.3972221 491.143943,17.7762769 C488.55043,16.1553317 484.840322,15.3448713 480.013508,15.3448713 L474.934572,15.3448713 Z" fill="#204956"/>
  </g>
</svg>

<svg width="512" height="82" xmlns="http://www.w3.org/2000/svg" preserveAspectRatio="xMidYMid"><path d="M0 78.994v-5.295c0-1.081.54-1.621 1.62-1.621h5.62V15.885H1.62c-1.08 0-1.62-.54-1.62-1.62V8.86c0-1.08.54-1.62 1.62-1.62 9.222-.433 16.895-.65 23.018-.65 18.731 0 28.096 6.7 28.096 20.1 0 4.683-1.188 8.808-3.566 12.374-2.377 3.566-5.547 6.285-9.51 8.158l12.644 24.855h6.7c1.08 0 1.621.54 1.621 1.62v5.296c0 1.08-.54 1.62-1.62 1.62H44.737c-1.08 0-1.873-.468-2.378-1.404L27.664 50.14h-2.161c-2.306 0-4.359-.108-6.16-.324v22.26h6.808c1.08 0 1.621.541 1.621 1.622v5.295c0 1.08-.54 1.62-1.62 1.62H1.62c-1.08 0-1.621-.54-1.621-1.62ZM19.343 15.56v26.043c.577.072 1.405.108 2.486.108 5.835 0 10.374-1.153 13.615-3.458 3.242-2.305 4.863-5.763 4.863-10.374 0-8.213-5.69-12.319-17.074-12.319h-3.89Zm71.538 66.35c-8.573 0-14.859-2.503-18.857-7.51-3.999-5.007-5.998-11.635-5.998-19.883 0-8.25 2.125-15.075 6.376-20.478 4.25-5.403 10.374-8.105 18.37-8.105 3.963 0 7.367.738 10.212 2.215 2.846 1.477 5.025 3.476 6.538 5.998 2.882 4.899 4.323 10.554 4.323 16.966 0 3.025-.144 4.682-.433 4.97-.288.289-.828.433-1.62.433h-31.77c.36 5.187 1.638 9.203 3.835 12.049 2.198 2.845 5.998 4.268 11.4 4.268 3.963 0 8.034-.936 12.212-2.81 1.009-.504 1.729-.216 2.161.865l2.053 4.97c.36.865.036 1.586-.972 2.162-4.755 2.594-10.698 3.89-17.83 3.89Zm-12.86-33.39h22.477c.144-9.006-3.386-13.509-10.59-13.509-4.25 0-7.258 1.351-9.023 4.053-1.765 2.701-2.72 5.853-2.864 9.455Zm58.57-12.536v27.232c0 3.386.432 5.835 1.297 7.348.864 1.513 2.485 2.27 4.863 2.27 2.377 0 4.682-.505 6.916-1.514.792-.288 1.368 0 1.729.865l1.945 4.97c.072.217.108.523.108.92 0 .395-.36.81-1.08 1.242-3.459 1.729-7.565 2.593-12.32 2.593-6.412 0-10.626-1.657-12.643-4.97-1.441-2.162-2.27-4.251-2.486-6.268a82.652 82.652 0 0 1-.432-8.645V35.985h-6.16c-1.08 0-1.62-.54-1.62-1.621v-5.62c0-1.08.54-1.62 1.62-1.62h6.16V12.535c0-1.08.54-1.62 1.62-1.62h8.862c1.08 0 1.621.54 1.621 1.62v14.589h10.914c1.08 0 1.621.54 1.621 1.62v5.62c0 1.08-.54 1.62-1.62 1.62H136.59ZM157.123 7.24V1.62c0-1.08.54-1.62 1.62-1.62h16.318c1.08 0 1.621.54 1.621 1.62v33.284c4.034-5.98 9.618-8.969 16.75-8.969 11.166 0 16.75 6.123 16.75 18.37v27.773h6.375c1.08 0 1.621.54 1.621 1.62v5.296c0 1.08-.54 1.62-1.62 1.62h-23.666c-1.081 0-1.621-.54-1.621-1.62v-5.295c0-1.081.54-1.621 1.62-1.621h5.188v-22.37c0-4.538-.577-7.852-1.73-9.941-1.152-2.09-3.53-3.134-7.132-3.134s-6.591 1.08-8.969 3.242c-2.377 2.161-3.566 4.61-3.566 7.348v24.855h6.592c1.08 0 1.62.54 1.62 1.62v5.296c0 1.08-.54 1.62-1.62 1.62h-24.53c-1.08 0-1.621-.54-1.621-1.62v-5.295c0-1.081.54-1.621 1.62-1.621h5.836V8.86h-5.835c-1.08 0-1.621-.54-1.621-1.62Zm84.829 64.838h6.808c1.08 0 1.62.54 1.62 1.62v5.296c0 1.08-.54 1.62-1.62 1.62h-25.72c-1.08 0-1.62-.54-1.62-1.62v-5.295c0-1.081.54-1.621 1.62-1.621h6.809V35.985h-5.835c-1.081 0-1.621-.54-1.621-1.621v-5.62c0-1.08.54-1.62 1.62-1.62h16.318c1.08 0 1.62.54 1.62 1.62v43.334Zm-15.129-60.083c0-2.233.703-4.088 2.107-5.565 1.405-1.477 3.278-2.216 5.62-2.216 2.341 0 4.214.739 5.619 2.216 1.405 1.477 2.107 3.332 2.107 5.565 0 2.233-.72 4.07-2.161 5.511-1.441 1.441-3.332 2.161-5.673 2.161-2.342 0-4.197-.72-5.566-2.16-1.368-1.442-2.053-3.279-2.053-5.512Zm27.34 22.477v-5.727c0-1.081.54-1.621 1.62-1.621h14.697c.937 0 1.513.54 1.73 1.62l.972 6.268c4.034-6.051 9.798-9.077 17.29-9.077 11.166 0 16.75 6.123 16.75 18.37v27.773h6.267c1.08 0 1.621.54 1.621 1.62v5.296c0 1.08-.54 1.62-1.62 1.62h-23.558c-1.081 0-1.621-.54-1.621-1.62v-5.295c0-1.081.54-1.621 1.62-1.621h5.188v-22.37c0-4.538-.577-7.852-1.73-9.941-1.152-2.09-3.53-3.134-7.132-3.134s-6.591 1.08-8.969 3.242c-2.377 2.161-3.566 4.61-3.566 7.348v24.855h6.7c1.08 0 1.621.54 1.621 1.62v5.296c0 1.08-.54 1.62-1.62 1.62h-24.531c-1.08 0-1.621-.54-1.621-1.62v-5.295c0-1.081.54-1.621 1.62-1.621h5.728V35.985h-5.835c-1.08 0-1.621-.504-1.621-1.513ZM338.992 1.62v43.117h5.511l16.75-16.426c.792-.792 1.729-1.188 2.81-1.188h8.428c1.081 0 1.621.54 1.621 1.62v5.62c0 1.08-.54 1.62-1.62 1.62H365.9l-11.887 11.563 14.804 24.53h6.376c1.08 0 1.62.541 1.62 1.622v5.295c0 1.08-.54 1.62-1.62 1.62h-13.94c-1.009 0-1.837-.468-2.486-1.404l-16.209-26.151h-3.566v19.019h5.727c1.08 0 1.621.54 1.621 1.62v5.296c0 1.08-.54 1.62-1.62 1.62h-23.558c-1.081 0-1.621-.54-1.621-1.62v-5.295c0-1.081.54-1.621 1.62-1.621h5.728V8.753h-5.835c-1.081 0-1.621-.54-1.621-1.62V1.62c0-1.08.54-1.621 1.62-1.621h16.318c1.08 0 1.621.54 1.621 1.62Zm44.846 5.62c9.221-.433 16.065-.65 20.532-.65 4.466 0 7.798.09 9.996.271 2.197.18 4.7.558 7.51 1.135 2.81.576 5.313 1.35 7.51 2.323 2.198.973 4.413 2.36 6.646 4.16a25.814 25.814 0 0 1 5.62 6.268c3.313 5.475 4.97 12.535 4.97 21.18 0 13.04-3.602 22.747-10.806 29.123-7.204 6.376-17.038 9.564-29.501 9.564h-22.477c-1.08 0-1.621-.54-1.621-1.621v-5.295c0-1.081.54-1.621 1.62-1.621h5.62V15.993h-5.62c-1.08 0-1.62-.54-1.62-1.62V8.86c0-1.08.54-1.62 1.62-1.62Zm43.279 57.164c4.358-5.187 6.538-12.283 6.538-21.288s-2.035-15.85-6.106-20.532c-4.07-4.683-10.428-7.024-19.073-7.024h-6.916v56.625h7.132c7.925 0 14.066-2.594 18.425-7.78Zm28.366 14.589v-5.295c0-1.081.54-1.621 1.621-1.621h5.728V15.993h-5.62c-1.08 0-1.62-.54-1.62-1.62V8.86c0-1.153.54-1.729 1.62-1.729 8.645-.36 16.858-.54 24.639-.54 7.78 0 13.994 1.495 18.64 4.484 4.647 2.99 6.97 7.259 6.97 12.806 0 4.034-1.242 7.546-3.728 10.536-2.485 2.99-5.42 5.169-8.807 6.538 5.547.864 9.78 2.917 12.697 6.16 2.918 3.241 4.377 7.203 4.377 11.886 0 6.124-2.27 11.076-6.808 14.859-4.539 3.782-10.554 5.925-18.046 6.43-3.098.216-8.069.324-14.913.324h-15.129c-1.08 0-1.62-.54-1.62-1.621Zm19.452-32.42v25.72h4.862c6.34 0 11.257-1.009 14.75-3.026 3.495-2.017 5.242-5.511 5.242-10.482 0-8.14-5.691-12.211-17.074-12.211h-7.78Zm0-31.23v22.262h4.106c10.662 0 15.993-3.71 15.993-11.13 0-4.18-1.297-7.079-3.89-8.7-2.594-1.62-6.304-2.431-11.13-2.431h-5.08Z" fill="#204956"/></svg>
